coreui/free/cil-lightbulb.svg

<svg viewBox="0 0 512 512" xmlns="http://www.w3.org/2000/svg"><path d="M252.59 496h6.81v0c59.61-.07 107.93-48.39 108-108v-55.7 0c41.99-33.72 66.41-84.68 66.37-138.531 0-98.03-79.76-177.777-177.78-177.777 -98.03 0-177.778 79.751-177.778 177.777h-.001c-.05 53.85 24.37 104.81 66.37 138.531v55.69 0c.06 59.61 48.38 107.93 107.99 108Zm6.81-32h-6.82v0c-31.15-.04-59.13-19.06-70.64-48h148.079 -.001c-11.51 28.94-39.49 47.96-70.632 48Zm76-80H176.58v-40h158.81ZM110.21 193.777C110.21 113.39 175.6 48 255.99 48c80.382 0 145.77 65.4 145.77 145.777v0c-.1 46.52-22.31 90.22-59.82 117.73l-.67.48h-170.6l-.67-.49H170c-37.52-27.52-59.72-71.22-59.813-117.74Z"/></svg>

<svg xmlns="http://www.w3.org/2000/svg" viewBox="0 0 512 512">
  <path fill="var(--ci-primary-color, currentColor)" d="M252.592,496h6.816a108.122,108.122,0,0,0,108-108V332.308a177.481,177.481,0,0,0,66.37-138.531C433.778,95.751,354.027,16,256,16S78.222,95.751,78.222,193.777a177.477,177.477,0,0,0,66.371,138.531V388A108.121,108.121,0,0,0,252.592,496Zm6.816-32h-6.816a76.106,76.106,0,0,1-70.631-48H330.04A76.107,76.107,0,0,1,259.408,464Zm76-80H176.593V344H335.408ZM110.222,193.777C110.222,113.4,175.618,48,256,48s145.778,65.4,145.778,145.777a146.392,146.392,0,0,1-59.817,117.737L341.3,312H170.7l-.665-.486A146.394,146.394,0,0,1,110.222,193.777Z" class="ci-primary"/>
</svg>
